src/site/assets/img/signin/lock-icon.svg

<?xml version="1.0" encoding="UTF-8"?>
<svg width="9px" height="11px" viewBox="0 0 9 11" version="1.1" xmlns="http://www.w3.org/2000/svg" xmlns:xlink="http://www.w3.org/1999/xlink">
    <!-- Generator: Sketch 46.2 (44496) - http://www.bohemiancoding.com/sketch -->
    <title>lock-icon</title>
    <desc>Created with Sketch.</desc>
    <defs></defs>
    <g id="Round-3-mockups" stroke="none" stroke-width="1" fill="none" fill-rule="evenodd">
        <g id="lock-icon" fill="#323A45">
            <path d="M2.50000298,5.00000596 L6.50000775,5.00000596 L6.50000775,3.50000417 C6.50000775,2.39844036 5.60156918,1.50000179 4.50000536,1.50000179 C3.39844155,1.50000179 2.50000298,2.39844036 2.50000298,3.50000417 L2.50000298,5.00000596 Z M9.00001073,5.75000685 L9.00001073,10.2500122 C9.00001073,10.6640752 8.66407283,11.0000131 8.25000983,11.0000131 L0.750000894,11.0000131 C0.3359379,11.0000131 0,10.6640752 0,10.2500122 L0,5.75000685 C0,5.33594386 0.3359379,5.00000596 0.750000894,5.00000596 L1.00000119,5.00000596 L1.00000119,3.50000417 C1.00000119,1.57812688 2.57812807,0 4.50000536,0 C6.42188266,0 8.00000954,1.57812688 8.00000954,3.50000417 L8.00000954,5.00000596 L8.25000983,5.00000596 C8.66407283,5.00000596 9.00001073,5.33594386 9.00001073,5.75000685 Z" id=""></path>
        </g>
    </g>
</svg>

<svg xmlns="http://www.w3.org/2000/svg" viewBox="0 0 9 11" width="9px" height="11px"><path d="M2.5 5h4V3.5c0-1.10156-.89843-2-2-2-1.10156 0-2 .89844-2 2V5zm6.50001.75v4.50001c0 .41407-.33594.75-.75.75h-7.5c-.41407 0-.75001-.33593-.75001-.75v-4.5C0 5.33594.33594 5 .75 5H1V3.5C1 1.57812 2.57813 0 4.5 0c1.92188 0 3.50001 1.57813 3.50001 3.5V5h.25c.41406 0 .75.33594.75.75z" fill="#323A45" fill-rule="evenodd"/></svg>
